static/assets/images/icons/docs.svg

<svg width="256" height="256" viewBox="0 0 256 256" fill="none" xmlns="http://www.w3.org/2000/svg">
<path fill-rule="evenodd" clip-rule="evenodd" d="M205.451 209.315C204.689 208.373 204.032 207.351 203.492 206.266C201.817 202.786 200.98 198.962 201.048 195.101C201.048 189.97 202.326 186.265 203.492 183.935C204.032 182.851 204.689 181.828 205.451 180.887L205.489 180.825C206.615 179.671 207.247 178.124 207.25 176.512V40.1962C207.25 38.5529 206.597 36.9768 205.433 35.8148C204.27 34.6528 202.693 34 201.048 34H76.5259L75.4963 34.062C70.7432 34.3942 66.1003 35.6486 61.8273 37.7549C57.4235 39.8983 53.6597 43.1587 50.9119 47.2103C47.8358 51.845 46 57.7066 46 64.9809V195.101C46 200.838 47.4512 205.547 49.9444 209.29C52.4252 212.983 55.675 215.375 58.7263 216.911C62.3628 218.704 66.3344 219.717 70.386 219.885H70.8077V207.493C70.7457 207.493 70.6216 207.493 70.448 207.468C68.3018 207.322 66.2042 206.762 64.2709 205.82C62.6583 205.056 61.2763 203.881 60.2644 202.412C59.2721 200.925 58.4038 198.657 58.4038 195.101C58.4038 191.544 59.2721 189.276 60.2644 187.789C61.2797 186.319 62.6662 185.143 64.2833 184.381C66.3215 183.386 68.5416 182.817 70.8077 182.708H190.604C189.475 186.054 188.644 190.206 188.644 195.101C188.644 199.996 189.475 204.147 190.604 207.493H141.999V219.885H201.048C202.266 219.885 203.458 219.527 204.473 218.854C205.489 218.182 206.284 217.226 206.759 216.105C207.234 214.984 207.368 213.748 207.144 212.551C206.921 211.355 206.349 210.251 205.501 209.377L205.451 209.315ZM116.391 158.442C111.043 158.442 107.126 155.17 110.867 140.755L117.003 115.197C118.069 111.111 118.246 109.47 117.003 109.47C115.4 109.47 108.466 112.291 104.356 115.077L101.688 110.66C114.688 99.6878 129.644 93.2582 136.063 93.2582C141.406 93.2582 142.295 99.6476 139.627 109.47L132.596 136.333C131.352 141.076 131.883 142.712 133.132 142.712C134.734 142.712 139.991 140.745 145.156 136.654L148.189 140.74C135.543 153.523 121.729 158.442 116.391 158.442ZM147.39 67.8813C147.39 62.6363 144.004 58.0588 137.231 58.0588C128.325 58.0588 123.872 65.2663 123.872 70.5013C123.695 76.7251 127.435 80.4895 133.849 80.4895C141.507 80.4895 147.39 74.4313 147.39 67.8813Z" fill="black"/>
<path d="M132.224 195.81H79.5938V239.281C79.5907 241.202 80.1034 243.081 81.067 244.68C82.0307 246.279 83.4018 247.525 85.0065 248.26C86.6113 248.996 88.3774 249.188 90.081 248.813C91.7846 248.437 93.349 247.51 94.5758 246.15L105.909 233.595L117.242 246.15C118.469 247.51 120.033 248.437 121.737 248.813C123.44 249.188 125.206 248.996 126.811 248.26C128.416 247.525 129.787 246.279 130.751 244.68C131.714 243.081 132.227 241.202 132.224 239.281V195.81Z" fill="black"/>
</svg>

<svg xmlns="http://www.w3.org/2000/svg" viewBox="0 0 256 256"><path fill-rule="evenodd" d="M205.451 209.315a16.6 16.6 0 0 1-1.959-3.049 24.74 24.74 0 0 1-2.444-11.165c0-5.131 1.278-8.836 2.444-11.166a16.6 16.6 0 0 1 1.959-3.048l.038-.062a6.2 6.2 0 0 0 1.761-4.313V40.196A6.203 6.203 0 0 0 201.048 34H76.526l-1.03.062a36.7 36.7 0 0 0-13.669 3.693 28 28 0 0 0-10.915 9.455C47.836 51.845 46 57.707 46 64.98v130.121c0 5.737 1.451 10.446 3.944 14.189 2.481 3.693 5.731 6.085 8.782 7.621a29.1 29.1 0 0 0 11.66 2.974h.422v-12.392c-.062 0-.186 0-.36-.025a16.7 16.7 0 0 1-6.177-1.648 10.13 10.13 0 0 1-4.007-3.408c-.992-1.487-1.86-3.755-1.86-7.311s.868-5.825 1.86-7.312a10.14 10.14 0 0 1 4.02-3.408 16.7 16.7 0 0 1 6.524-1.673h119.796c-1.129 3.346-1.96 7.498-1.96 12.393s.831 9.046 1.96 12.392h-48.605v12.392h59.049a6.198 6.198 0 0 0 6.096-7.334 6.2 6.2 0 0 0-1.643-3.174zm-89.06-50.873c-5.348 0-9.265-3.272-5.524-17.687l6.136-25.558c1.066-4.086 1.243-5.727 0-5.727-1.603 0-8.537 2.821-12.647 5.607l-2.668-4.417c13-10.972 27.956-17.402 34.375-17.402 5.343 0 6.232 6.39 3.564 16.212l-7.031 26.863c-1.244 4.743-.713 6.379.536 6.379 1.602 0 6.859-1.967 12.024-6.058l3.033 4.086c-12.646 12.783-26.46 17.702-31.798 17.702m30.999-90.56c0-5.246-3.386-9.823-10.159-9.823-8.906 0-13.359 7.207-13.359 12.442-.177 6.224 3.563 9.989 9.977 9.989 7.658 0 13.541-6.059 13.541-12.609" clip-rule="evenodd"/><path d="M132.224 195.81h-52.63v43.471c-.003 1.921.51 3.8 1.473 5.399s2.335 2.845 3.94 3.58a8 8 0 0 0 5.074.553c1.704-.376 3.268-1.303 4.495-2.663l11.333-12.555 11.333 12.555c1.227 1.36 2.791 2.287 4.495 2.663a8 8 0 0 0 5.074-.553c1.605-.735 2.976-1.981 3.94-3.58a10.46 10.46 0 0 0 1.473-5.399z"/></svg>
